symbols/web/swap_vertical_circle/materialsymbolsoutlined/swap_vertical_circle_wght700fill1_48px.svg

<svg xmlns="http://www.w3.org/2000/svg" height="48" width="48"><path d="m28.3 37.3 7.8-7.8-2.15-2.1-4.15 4.15V22h-3v9.55l-4.05-4.1-2.15 2.15ZM18.5 26h3v-9.55l4.1 4.05 2.1-2.1-7.7-7.7-7.8 7.8 2.15 2.1 4.15-4.15ZM24 45.25q-4.4 0-8.275-1.65T8.95 39.05q-2.9-2.9-4.55-6.775Q2.75 28.4 2.75 24q0-4.45 1.65-8.325 1.65-3.875 4.55-6.75t6.775-4.55Q19.6 2.7 24 2.7q4.45 0 8.325 1.675 3.875 1.675 6.75 4.55t4.55 6.75Q45.3 19.55 45.3 24q0 4.4-1.675 8.275t-4.55 6.775q-2.875 2.9-6.75 4.55T24 45.25Z"/></svg>

<svg xmlns="http://www.w3.org/2000/svg" height="48" width="48"><path d="M24 45.25Q19.6 45.25 15.725 43.575Q11.85 41.9 8.975 39.025Q6.1 36.15 4.425 32.275Q2.75 28.4 2.75 24Q2.75 19.6 4.425 15.725Q6.1 11.85 8.975 8.975Q11.85 6.1 15.725 4.4Q19.6 2.7 24 2.7Q28.4 2.7 32.275 4.4Q36.15 6.1 39.025 8.975Q41.9 11.85 43.6 15.725Q45.3 19.6 45.3 24Q45.3 28.4 43.6 32.275Q41.9 36.15 39.025 39.025Q36.15 41.9 32.275 43.575Q28.4 45.25 24 45.25ZM18.5 26H21.5V16.45L25.6 20.5L27.7 18.4L20 10.7L12.2 18.5L14.35 20.6L18.5 16.45ZM29.8 22H26.8V31.55L22.75 27.45L20.6 29.6L28.3 37.3L36.1 29.5L33.95 27.4L29.8 31.55Z"/></svg>
